static/img/kroki/afe9cb7e3a8544f1e6c3956b3a69919a.svg

<?xml version="1.0" encoding="us-ascii" standalone="no"?><svg xmlns="http://www.w3.org/2000/svg" xmlns:xlink="http://www.w3.org/1999/xlink" contentStyleType="text/css" height="374px" preserveAspectRatio="none" style="width:415px;height:374px;" version="1.1" viewBox="0 0 415 374" width="415px" zoomAndPan="magnify"><defs/><g><!--class azure_storage_file_share--><g id="elem_azure_storage_file_share"><rect codeLine="23" fill="#3D176E" height="39.7891" id="azure_storage_file_share" rx="2.5" ry="2.5" style="stroke:#000D19;stroke-width:0.5;" width="249" x="90.5" y="328.58"/><ellipse cx="105.5" cy="348.4745" fill="#ADD1B2" rx="11" ry="11" style="stroke:#181818;stroke-width:1.0;"/><path d="M108.4688,354.1152 Q107.8906,354.412 107.25,354.5527 Q106.6094,354.7089 105.9063,354.7089 Q103.4063,354.7089 102.0781,353.0683 Q100.7656,351.412 100.7656,348.287 Q100.7656,345.162 102.0781,343.5058 Q103.4063,341.8495 105.9063,341.8495 Q106.6094,341.8495 107.25,342.0058 Q107.9063,342.162 108.4688,342.4589 L108.4688,345.1777 Q107.8438,344.5995 107.25,344.3339 Q106.6563,344.0527 106.0313,344.0527 Q104.6875,344.0527 104,345.1308 Q103.3125,346.1933 103.3125,348.287 Q103.3125,350.3808 104,351.4589 Q104.6875,352.5214 106.0313,352.5214 Q106.6563,352.5214 107.25,352.2558 Q107.8438,351.9745 108.4688,351.3964 L108.4688,354.1152 Z " fill="#000000"/><text fill="#D9B8FF" font-family="Helvetica" font-size="17" lengthAdjust="spacing" textLength="207" x="124.5" y="354.3598">azure_storage_file_share</text></g><!--class microsoft_resource--><g id="elem_microsoft_resource"><rect codeLine="26" fill="#3D176E" height="39.7891" id="microsoft_resource" rx="2.5" ry="2.5" style="stroke:#000D19;stroke-width:0.5;" width="200" x="7" y="167.79"/><ellipse cx="22" cy="187.6845" fill="#ADD1B2" rx="11" ry="11" style="stroke:#181818;stroke-width:1.0;"/><path d="M24.9688,193.3252 Q24.3906,193.622 23.75,193.7627 Q23.1094,193.9189 22.4063,193.9189 Q19.9063,193.9189 18.5781,192.2783 Q17.2656,190.622 17.2656,187.497 Q17.2656,184.372 18.5781,182.7158 Q19.9063,181.0595 22.4063,181.0595 Q23.1094,181.0595 23.75,181.2158 Q24.4063,181.372 24.9688,181.6689 L24.9688,184.3877 Q24.3438,183.8095 23.75,183.5439 Q23.1563,183.2627 22.5313,183.2627 Q21.1875,183.2627 20.5,184.3408 Q19.8125,185.4033 19.8125,187.497 Q19.8125,189.5908 20.5,190.6689 Q21.1875,191.7314 22.5313,191.7314 Q23.1563,191.7314 23.75,191.4658 Q24.3438,191.1845 24.9688,190.6064 L24.9688,193.3252 Z " fill="#000000"/><text fill="#D9B8FF" font-family="Helvetica" font-size="17" lengthAdjust="spacing" textLength="158" x="41" y="193.5698">microsoft_resource</text></g><!--class network_share--><g id="elem_network_share"><rect codeLine="29" fill="#3D176E" height="39.7891" id="network_share" rx="2.5" ry="2.5" style="stroke:#000D19;stroke-width:0.5;" width="167" x="241.5" y="167.79"/><ellipse cx="256.5" cy="187.6845" fill="#ADD1B2" rx="11" ry="11" style="stroke:#181818;stroke-width:1.0;"/><path d="M259.4688,193.3252 Q258.8906,193.622 258.25,193.7627 Q257.6094,193.9189 256.9063,193.9189 Q254.4063,193.9189 253.0781,192.2783 Q251.7656,190.622 251.7656,187.497 Q251.7656,184.372 253.0781,182.7158 Q254.4063,181.0595 256.9063,181.0595 Q257.6094,181.0595 258.25,181.2158 Q258.9063,181.372 259.4688,181.6689 L259.4688,184.3877 Q258.8438,183.8095 258.25,183.5439 Q257.6563,183.2627 257.0313,183.2627 Q255.6875,183.2627 255,184.3408 Q254.3125,185.4033 254.3125,187.497 Q254.3125,189.5908 255,190.6689 Q255.6875,191.7314 257.0313,191.7314 Q257.6563,191.7314 258.25,191.4658 Q258.8438,191.1845 259.4688,190.6064 L259.4688,193.3252 Z " fill="#000000"/><text fill="#D9B8FF" font-family="Helvetica" font-size="17" lengthAdjust="spacing" textLength="125" x="275.5" y="193.5698">network_share</text></g><!--class resource--><g id="elem_resource"><rect codeLine="32" fill="#3D176E" height="39.7891" id="resource" rx="2.5" ry="2.5" style="stroke:#000D19;stroke-width:0.5;" width="113" x="158.5" y="7"/><ellipse cx="173.5" cy="26.8945" fill="#ADD1B2" rx="11" ry="11" style="stroke:#181818;stroke-width:1.0;"/><path d="M176.4688,32.5352 Q175.8906,32.832 175.25,32.9727 Q174.6094,33.1289 173.9063,33.1289 Q171.4063,33.1289 170.0781,31.4883 Q168.7656,29.832 168.7656,26.707 Q168.7656,23.582 170.0781,21.9258 Q171.4063,20.2695 173.9063,20.2695 Q174.6094,20.2695 175.25,20.4258 Q175.9063,20.582 176.4688,20.8789 L176.4688,23.5977 Q175.8438,23.0195 175.25,22.7539 Q174.6563,22.4727 174.0313,22.4727 Q172.6875,22.4727 172,23.5508 Q171.3125,24.6133 171.3125,26.707 Q171.3125,28.8008 172,29.8789 Q172.6875,30.9414 174.0313,30.9414 Q174.6563,30.9414 175.25,30.6758 Q175.8438,30.3945 176.4688,29.8164 L176.4688,32.5352 Z " fill="#000000"/><text fill="#D9B8FF" font-family="Helvetica" font-size="17" lengthAdjust="spacing" textLength="71" x="192.5" y="32.7798">resource</text></g><!--reverse link microsoft_resource to azure_storage_file_share--><g id="link_microsoft_resource_azure_storage_file_share"><path codeLine="35" d="M130.1537,222.7232 C150.9137,253.2432 181.14,297.69 201.93,328.25 " fill="none" id="microsoft_resource-backto-azure_storage_file_share" style="stroke:#FFAF37;stroke-width:2.0;"/><polygon fill="none" points="120.03,207.84,125.1926,226.0978,135.1148,219.3487,120.03,207.84" style="stroke:#FFAF37;stroke-width:2.0;"/></g><!--reverse link network_share to azure_storage_file_share--><g id="link_network_share_azure_storage_file_share"><path codeLine="36" d="M301.4807,222.637 C280.3407,253.157 249.49,297.69 228.32,328.25 " fill="none" id="network_share-backto-azure_storage_file_share" style="stroke:#FFAF37;stroke-width:2.0;"/><polygon fill="none" points="311.73,207.84,296.5484,219.2206,306.413,226.0535,311.73,207.84" style="stroke:#FFAF37;stroke-width:2.0;"/></g><!--reverse link resource to microsoft_resource--><g id="link_resource_microsoft_resource"><path codeLine="37" d="M191.8463,61.9332 C171.0863,92.4532 140.86,136.9 120.07,167.46 " fill="none" id="resource-backto-microsoft_resource" style="stroke:#FFAF37;stroke-width:2.0;"/><polygon fill="none" points="201.97,47.05,186.8852,58.5587,196.8074,65.3078,201.97,47.05" style="stroke:#FFAF37;stroke-width:2.0;"/></g><!--reverse link resource to network_share--><g id="link_resource_network_share"><path codeLine="38" d="M238.5193,61.847 C259.6593,92.367 290.51,136.9 311.68,167.46 " fill="none" id="resource-backto-network_share" style="stroke:#FFAF37;stroke-width:2.0;"/><polygon fill="none" points="228.27,47.05,233.587,65.2635,243.4516,58.4306,228.27,47.05" style="stroke:#FFAF37;stroke-width:2.0;"/></g><!--SRC=[XP9FJm8n4CNl-ocQU2O1YGA95oGnUY56l9DXEsMRtUsGwQm4rEyk29fkovzZ-tvzxysaXTMei5x9HjLOBv1zvalhLi1Ggp4phITK4QiROy3q1x7uH4wk0bEeKJrZzO5YSuY9zyBcfKFlrMqWFK9UBfaQfm_smk3yJa8d0JMfmFkn2Dj58nYKqQF5q9YOZ4rl-hetkCS48zR8HwJRxUhUA4QkHbsS-v-OsIsgNhYqAGacDPE8N-fYopqHb4m6_TFFTdm5hQrRghlWxktGYHrowtvMWARrdZPG-J362pAIR5OuIQR2qL2RmKduvHoSvVlLATWsZ7ClnB34kR7Lxb3iFeVwpBBl8rFRdCcJaJcZfuRpbkfGriHb-gmDdp1v-EfqEcSRP6tZAt1acgR5HCiz-m40]--></g></svg>

<svg xmlns="http://www.w3.org/2000/svg" width="415" height="374" viewBox="0 0 415 374"><rect width="249" height="39.789" x="90.5" y="328.58" fill="#3D176E" rx="2.5" ry="2.5" style="stroke:#000d19;stroke-width:.5"/><circle cx="105.5" cy="348.474" r="11" fill="#ADD1B2" style="stroke:#181818;stroke-width:1"/><path d="M108.469 354.115q-.578.297-1.219.438-.64.156-1.344.156-2.5 0-3.828-1.64-1.312-1.657-1.312-4.782t1.312-4.781q1.328-1.656 3.828-1.656.703 0 1.344.156.656.156 1.219.453v2.719q-.625-.579-1.219-.844-.594-.281-1.219-.281-1.344 0-2.031 1.078-.687 1.062-.687 3.156t.687 3.172q.688 1.062 2.031 1.062.625 0 1.219-.265.594-.281 1.219-.86z"/><text x="124.5" y="354.36" fill="#D9B8FF" font-family="Helvetica" font-size="17" textLength="207">azure_storage_file_share</text><rect width="200" height="39.789" x="7" y="167.79" fill="#3D176E" rx="2.5" ry="2.5" style="stroke:#000d19;stroke-width:.5"/><circle cx="22" cy="187.685" r="11" fill="#ADD1B2" style="stroke:#181818;stroke-width:1"/><path d="M24.969 193.325q-.578.297-1.219.438-.64.156-1.344.156-2.5 0-3.828-1.64-1.312-1.657-1.312-4.782t1.312-4.781q1.328-1.656 3.828-1.656.703 0 1.344.156.656.156 1.219.453v2.719q-.625-.578-1.219-.844-.594-.281-1.219-.281-1.343 0-2.031 1.078-.687 1.062-.687 3.156t.687 3.172q.688 1.062 2.031 1.062.625 0 1.219-.265.594-.281 1.219-.86z"/><text x="41" y="193.57" fill="#D9B8FF" font-family="Helvetica" font-size="17" textLength="158">microsoft_resource</text><rect width="167" height="39.789" x="241.5" y="167.79" fill="#3D176E" rx="2.5" ry="2.5" style="stroke:#000d19;stroke-width:.5"/><circle cx="256.5" cy="187.685" r="11" fill="#ADD1B2" style="stroke:#181818;stroke-width:1"/><path d="M259.469 193.325q-.578.297-1.219.438-.64.156-1.344.156-2.5 0-3.828-1.64-1.312-1.657-1.312-4.782t1.312-4.781q1.328-1.656 3.828-1.656.703 0 1.344.156.656.156 1.219.453v2.719q-.625-.578-1.219-.844-.594-.281-1.219-.281-1.344 0-2.031 1.078-.687 1.062-.687 3.156t.687 3.172q.688 1.062 2.031 1.062.625 0 1.219-.265.594-.281 1.219-.86z"/><text x="275.5" y="193.57" fill="#D9B8FF" font-family="Helvetica" font-size="17" textLength="125">network_share</text><rect width="113" height="39.789" x="158.5" y="7" fill="#3D176E" rx="2.5" ry="2.5" style="stroke:#000d19;stroke-width:.5"/><circle cx="173.5" cy="26.895" r="11" fill="#ADD1B2" style="stroke:#181818;stroke-width:1"/><path d="M176.469 32.535q-.578.297-1.219.438-.64.156-1.344.156-2.5 0-3.828-1.64-1.312-1.657-1.312-4.782t1.312-4.781q1.328-1.656 3.828-1.656.703 0 1.344.156.656.156 1.219.453v2.719q-.625-.578-1.219-.844-.594-.281-1.219-.281-1.344 0-2.031 1.078-.687 1.062-.687 3.156t.687 3.172q.688 1.062 2.031 1.062.625 0 1.219-.265.594-.281 1.219-.86z"/><text x="192.5" y="32.78" fill="#D9B8FF" font-family="Helvetica" font-size="17" textLength="71">resource</text><g fill="none"><path d="M130.154 222.723c20.76 30.52 50.986 74.967 71.776 105.527" style="stroke:#ffaf37;stroke-width:2"/><path d="m120.03 207.84 5.163 18.258 9.922-6.75z" style="stroke:#ffaf37;stroke-width:2"/></g><path fill="none" d="M301.48 222.637c-21.14 30.52-51.99 75.053-73.16 105.613m83.41-120.41-15.182 11.38 9.865 6.834z" style="stroke:#ffaf37;stroke-width:2"/><g fill="none"><path d="M191.846 61.933c-20.76 30.52-50.986 74.967-71.776 105.527" style="stroke:#ffaf37;stroke-width:2"/><path d="m201.97 47.05-15.085 11.509 9.922 6.749z" style="stroke:#ffaf37;stroke-width:2"/></g><path fill="none" d="M238.52 61.847c21.14 30.52 51.99 75.053 73.16 105.613M228.27 47.05l5.317 18.213 9.865-6.832z" style="stroke:#ffaf37;stroke-width:2"/></svg>
